X: 30512
T: NANCY'S FAVORITE
C:
%R: jig
B: Elias Howe "The Musician's Companion" Part 3 1844 p.51 #2
S: http://imslp.org/wiki/The_Musician's_Companion_(Howe,_Elias)
S: https://archive.org/stream/firstthirdpartof03howe/#page/66/mode/1up
Z: 2015 John Chambers <jc:trillian.mit.edu>
N: Added dot to last note.
M: 6/8
L: 1/8
K: D
% - - - - - - - - - - - - - - - - - - - - - - - - -
|:\
DED FED | A2A A2d | A2d A2G | FEF D2A |\
DED FED | A2A A2d | cdc BAB | (A3 A2A) |\
e2c g2f |
edc d2A | e2A g2f | edc d2d |\
f2e d2c | B2A G2F | EGB A2C | D3 D3 ::\
F3 EDE | D2D D2F | [A3F3] GFG | F2F F2d |
d2c c2B | B2A A2G | FGA AGF | (F2 E2) z2 |\
d3 dBG | A2A A2e | g3 gec | d2d d2d |\
f2e d2c | B2A G2F | EGB A2C | D3 D3 :|
% - - - - - - - - - - - - - - - - - - - - - - - - -
